X: 21879
T: Kiss The Bride
R: reel
M: 4/4
K: Gmajor
D2|:GBAG FGAc|BGBd g2 (dg)|ecAG FGAc|1 BGAF GFED:|2 BGAF G2 d2||
g2 fg a2 ga|bagf g2 (dg)|ecAG FGAc|BGAF GFED|
g2 fg a2 ga|bagf g2 (dg)|ecAG FGAc|BGAF G2 D2||

